src/assets/media/icon_copy.svg

<svg width="18" height="18" fill="none" xmlns="http://www.w3.org/2000/svg">
    <g clip-path="url(#a)">
        <path d="M12 .75H3c-.825 0-1.5.675-1.5 1.5v10.5H3V2.25h9V.75zm2.25 3H6c-.825 0-1.5.675-1.5 1.5v10.5c0 .825.675 1.5 1.5 1.5h8.25c.825 0 1.5-.675 1.5-1.5V5.25c0-.825-.675-1.5-1.5-1.5zm0 12H6V5.25h8.25v10.5z"
              fill="#667085"/>
    </g>
    <defs>
        <clipPath id="a">
            <path fill="#fff" d="M0 0h18v18H0z"/>
        </clipPath>
    </defs>
</svg>

<svg width="18" height="18" viewBox="0 0 18 18" fill="none" xmlns="http://www.w3.org/2000/svg">
    <g clip-path="url(#clip0_306_4446)">
        <path d="M12 0.75H3C2.175 0.75 1.5 1.425 1.5 2.25V12.75H3V2.25H12V0.75ZM14.25 3.75H6C5.175 3.75 4.5 4.425 4.5 5.25V15.75C4.5 16.575 5.175 17.25 6 17.25H14.25C15.075 17.25 15.75 16.575 15.75 15.75V5.25C15.75 4.425 15.075 3.75 14.25 3.75ZM14.25 15.75H6V5.25H14.25V15.75Z"
              fill="#667085"/>
    </g>
    <defs>
        <clipPath id="clip0_306_4446">
            <rect width="18" height="18" fill="white"/>
        </clipPath>
    </defs>
</svg>
